X:2
T:Coxscomb's Polka
C:Andy Hornby 2006
I:abc2nw
M:2/4
L:1/8
K:D
F/2G/2|Ad cd|A2F3/2A/2|GB E/2F/2G/2A/2|cB A3/2G/2|
Fd cd|A2FA|G/2F/2E/2F/2 G/2A/2B/2c/2|df d:|
|:e/2f/2|gB gB|fA f2|e/2d/2c/2B/2 A/2G/2F/2E/2|
F/2G/2A/2B/2 Ae/2f/2|gB gB|fA fA|e/2d/2c/2B/2 Ac|d2d:|
%%vskip 2.5cm
